X:1
T:Toss The Feathers (Reel)
M:4/4
L:1/8
O:Trad. (28.3.2016/NS)
K:Edor
|: "Em" EBB2 dBB2 |     EBBA "D"  FDFA | "Em" BEE2     B2Bd |[1     egfe    "D"  dBAF :|2 egfe "D" dBAe|
   "Em" Beed e2de | "D" fede      fee2 | "Em" febe     febe |   "D" fede    "Bm" feed  |
   "Em" Beed e2de | "D" fede "Bm" faa2 | "G"  b2bf "D" a2af |   "A" e/f/gfe "D"  dBAF  ||
